**kern	**kern	**dynam
*part1	*part1	*part1
*staff2	*staff1	*
*I"Piano	*	*
*clefF4	*clefG2	*
*k[f#]	*k[f#]	*
=1	=1	=1
8CCL]	8GL] 8e] 8g]	.
8FFn	8A 8d 8fn	>
8.GG	8.G 8.c 8.e	.
16GGGJk)	16GJk) 16B 16d	]
=	=	=
(8GGGL	(8GL 8B 8d	.
8CCJ)	8cJ) 8e	.
4CC	4c 4e	.
*	*clefF4	*
=	=	=
(8qEEE/	.	p
4.EE^	8G#X^L 8B 8e	.
.	8E 8G# 8B	.
.	8E 8G# 8B	.
16DD#XLL	8EJ 8G# 8B	.
16DDnJJ	.	.
=	=	=
8CCL	(8EL 8A 8c	.
8BBBJ	8EJ 8B 8d	.
!	!LO:TX:a:i:t=ritard.	!
[4AAA	[4E [4c [4e	<
=	=	=
8AAAL]	8EL] 8c] 8e]	.
8BBB	8E 8B 8d	[ >
8.CC	8.E 8.A 8.c	.
16CC#XJk)	16EJk) 16G 16B	.
=	=	=
(8CC#XL	(8EL 8G 8B	]
8DDJ)	8F#J) 8A	.
4DD	4F# 4A	.
*	*clefG2	*
=	=	=
4..GG 4..D 4..B	4..g 4..dd 4..gg	ff >
16E 16c	16g 16ee 16gg	.
=	=	=
*-	*-	*-
!!!system-decoration: {(s1,s2)}
